assets/Fleur-de-lis/Flat/fleur-de-lis_flat.svg

<svg width="32" height="32" viewBox="0 0 32 32" fill="none" xmlns="http://www.w3.org/2000/svg">
<path d="M13.4321 26.5C11.8186 27.3872 8.93208 27 7.93208 24C7.93208 24 7.57852 22.8536 7.93208 22.5C8.35286 22.0792 8.65221 22.5589 8.83869 22.8577C8.8738 22.9139 8.90491 22.9638 8.93208 23C10.4321 25 12.9321 23 12.9321 21C12.9321 18.8404 10.4321 17 8.43208 17C6.43208 17 5.68208 18.6193 5.68208 20C5.68208 20.0667 5.68808 20.1467 5.69448 20.232C5.72008 20.5733 5.75207 21 5.43208 21C4.64487 21 3.05662 20.4 3.00127 18C2.9646 16.0972 3.72289 14.4399 5.43206 13.5C8.37834 11.8799 12.9321 13 14.9406 16.4717C15.2703 17.0713 15.529 17.715 15.716 18.3781C15.9031 17.715 16.1618 17.0713 16.4915 16.4717C18.5 13 23.0537 11.8799 26 13.5C27.7092 14.4399 28.4675 16.0972 28.4308 18C28.3755 20.4 26.7872 21 26 21C25.68 21 25.712 20.5733 25.7376 20.232C25.744 20.1467 25.75 20.0667 25.75 20C25.75 18.6193 25 17 23 17C21 17 18.5 18.8404 18.5 21C18.5 23 21 25 22.5 23C22.5272 22.9638 22.5583 22.9139 22.5934 22.8577C22.7799 22.5589 23.0792 22.0792 23.5 22.5C23.8536 22.8536 23.5 24 23.5 24C22.5 27 19.6135 27.3872 18 26.5C16.8868 25.8878 16.1273 24.8014 15.716 23.4996C15.3048 24.8014 14.5453 25.8878 13.4321 26.5Z" fill="#FF9F2E"/>
<path d="M17 18.1834C17 15.6834 22 15 22 10C22 8.50002 22 7.50002 19.5 5.00002L16.5773 2.18337C16.256 1.93888 15.8212 1.93888 15.5 2.18337L12.5 5.00002C10 7.50002 10 8.50002 10 10C10 15 15 15.6834 15 18.1834V22.1136C14.1274 23.0179 13 24.4525 13 25.8286C13 27.4131 14.6207 28.5979 15.5 29.5C15.8482 29.8572 16.4039 29.8572 16.752 29.5C17.6314 28.5979 19 27.4131 19 25.8286C19 24.4525 17.8726 23.0179 17 22.1136V18.1834Z" fill="#F9C23C"/>
<path d="M12 20C12 19.4477 12.4477 19 13 19H19C19.5523 19 20 19.4477 20 20C20 20.5523 19.5523 21 19 21H13C12.4477 21 12 20.5523 12 20Z" fill="#FF822D"/>
</svg>

<svg xmlns="http://www.w3.org/2000/svg" width="32" height="32" fill="none"><path fill="#FF9F2E" d="M13.432 26.5c-1.613.887-4.5.5-5.5-2.5 0 0-.353-1.146 0-1.5.42-.42.72.059.907.358.035.056.066.106.093.142 1.5 2 4 0 4-2 0-2.16-2.5-4-4.5-4s-2.75 1.62-2.75 3c0 .067.006.147.012.232.026.341.058.768-.262.768-.787 0-2.375-.6-2.43-3-.037-1.903.72-3.56 2.43-4.5 2.946-1.62 7.5-.5 9.509 2.972.33.6.588 1.243.775 1.906a9.079 9.079 0 0 1 .775-1.906C18.5 13 23.054 11.88 26 13.5c1.71.94 2.468 2.597 2.43 4.5-.055 2.4-1.643 3-2.43 3-.32 0-.288-.427-.262-.768.006-.085.012-.165.012-.232 0-1.38-.75-3-2.75-3s-4.5 1.84-4.5 4c0 2 2.5 4 4 2 .027-.036.058-.086.093-.142.187-.3.486-.779.907-.358.354.354 0 1.5 0 1.5-1 3-3.887 3.387-5.5 2.5-1.113-.612-1.873-1.699-2.284-3-.411 1.301-1.17 2.388-2.284 3Z"/><path fill="#F9C23C" d="M17 18.183c0-2.5 5-3.183 5-8.183 0-1.5 0-2.5-2.5-5l-2.923-2.817a.883.883 0 0 0-1.077 0L12.5 5C10 7.5 10 8.5 10 10c0 5 5 5.683 5 8.183v3.93c-.873.905-2 2.34-2 3.716 0 1.584 1.62 2.769 2.5 3.671a.865.865 0 0 0 1.252 0c.88-.902 2.248-2.087 2.248-3.671 0-1.377-1.127-2.811-2-3.715v-3.93Z"/><path fill="#FF822D" d="M12 20a1 1 0 0 1 1-1h6a1 1 0 1 1 0 2h-6a1 1 0 0 1-1-1Z"/></svg>
